X: 23892
T: Loch Altan
R: reel
M: 4/4
K: Adorian
|:A,B,CD (3EEE EC|DCEC DCB,C|A,B,CD (3EEE EC|DB,G,A, B,A,A,2:|
CE~E2 CE~E2|DCB,C A,B,G,B,|CE~E2 CE~E2|DB,G,A, B,A,A,2|
CE~E2 CE~E2|DCB,C A,B,G,B,|A,B,CD (3EFG EC|DB,G,A, B,A,A,2||

